X:101
T: Genovefa
N: Q1104C
O: Suedosteuropa, Jugoslawien, Batschka
N: Melodievergleich zu Q0104A, anderes Lied.
R: geistlich
M: 2/2
L: 1/8
K: G
D2 | G2A2B2c2 | d2dcB4 |
e3ee4 | d4z2
d2 | e2d2c2Bd | c2B2A2
G2 | F2e2d2AB | c4B2

@@@ Tune index: 1394
